X:831
T:Prince Edward
S:Bruce & Emmett's Drummers and Fifers Guide (1862), p. 83
M:2/4
L:1/16
Q:1/4=100
K:D
%%MIDI program 72
%%MIDI transpose 8
%%MIDI ratio 3 1
FE|D4 F2A2|dcde d3A|F2A2 BAGF|E4 A4|
BcdB cdec|A4 (G4|F)EDE F2E2|D4 z2::cd|e3d c2B2|
A^GAB A3F|G2F2E2D2|A4 z2A2|B2Bc B2A2|BABc B2cd|
e2d2 cAB^G|A4 z2A2|G2F2E2D2|G2F2 G3A|B2A2 d2F2|
E4A4|BcdB cdec|A4G4|FEDE F2E2|D4 z2:|
